X:1
T: The Maid of Kinsale
C:
R:Jig
Q:180
K:G
M:6/8
L:1/16
D2|G2D2G2 A2B2A2|B2G2B2 d2e2f2|g2f2e2 d2c2B2|c2A2A2 A4D2|G2D2G2 c2B2A2|B2G2B2 d2e2f2|g2f2e2 d2e2c2|B2G2G2 G4D2|
G2D2G2 A2B2A2|B2G2B2 d2e2f2|g2f2e2 d2c2B2|c2A2A2 A4D2|G2D2G2 c2B2A2|B2G2B2 d2e2f2|g2f2e2 d2e2c2|B2G2G2 G4A2|
B2d2g2 d2B2G2|c2B2c2 d2e2f2|g2d2B2 e2d2c2|B2A2A2 A4B2|G2c2A2 B2c2d2|e2c2e2 g2f2e2|d2B2d2 e2d2c2|B2G2G2 G4A2|
B2d2g2 d2B2G2|c2B2c2 d2e2f2|g2d2B2 e2d2c2|B2A2A2 A4B2|G2c2A2 B2c2d2|e2c2e2 g2f2e2|d2B2d2 e2d2c2|B2G2G2 G4||
